X: 3
T: The Stolen Purse
R: jig
M: 6/8
L: 1/8
K: Ador
edB AGA | AGF GBd | edB ABd | e/g/e d efg |
edB AGA | AGF G2A | GED G2A |1 Bdd edg :|2 Bdd edB |]
def ~g3 | agf ~g2e | def gfg | age edB |
def ~g3 | agf ~g2a | bag agf | e/g/e d efg :|


Tune 2646	Setting 22197

